X: 1031
T: Mr Graham of Orchill's Strathspey
%R: strathspey
B: Niel Gow & Sons "A Collection of Strathspey Reels, etc." v.1 p.3 #1
Z: 2022 John Chambers <jc:trillian.mit.edu>
M: C
L: 1/8
K: F
% = = = = = = = = = =
V: 1 staves=2
f |\
c<Fc>A c>FA<f | c<Fc>A {A}G2G>f |\
c<Fc>A f>g{fg}a>g | f>d{d}c>A G2G :| c |\
f>g{fg}a>g .f.c.A.F | (f/e/f/g/) a>c {c}d2d>e |
f>gaf g<af<c | d<fc>A {A}G2G>c ||\
f>g{fg}a>g .f.c.A.F | (f/e/f/g/) a>c {c}d2d>g |\
(f/e/f/g/) a>f (g/f/g/a/) f.c | d<fc>A {A}G2G |]
% = = = = = = = = = =
% Voice 2 preserves the staff layout in the book.
V: 2 clef=bass middle=d
z | f2f2 f2f2 | f2f2 g2g2 | f2f2 f2f2 | b2a2 g2g :| z | f2f2 f2f2 | f2f2 B2B2 |
f2f2 f2f2 | f2f2 g2g2 || f2f2 f2f2 | f2f2 B2B2 | f2f2 f2f2 | b2a2 g2g |]


